src/images/icon/icon_language_switch.svg

<svg height="20" viewBox="0 0 20 20" width="20" xmlns="http://www.w3.org/2000/svg"><g fill="none" fill-rule="evenodd"><rect height="11.428571" rx="1.428571" stroke="#36435c" stroke-width="1.5" width="11.428571" x="4.285714" y="4.285714"/><g transform="translate(8.571429 8.571429)"><path d="m10 0c.7889782 0 1.4285714.63959322 1.4285714 1.42857143v8.57142857c0 .7889782-.6395932 1.4285714-1.4285714 1.4285714h-8.57142857c-.78897821 0-1.42857143-.6395932-1.42857143-1.4285714v-5.715l1.42857143.00071429c1.57795643 0 2.85714286-1.27918643 2.85714286-2.85714286l-.00071429-1.42857143zm-7.143 0 .00014286 1.42857143c0 .78897821-.63959322 1.42857143-1.42857143 1.42857143l-1.42857143-.00014286v-1.42842857c0-.78897821.63959322-1.42857143 1.42857143-1.42857143z" fill="#b6c2cd"/><path d="m4.06593407 9.28571429.45435333-1.63950144h2.32459848l.45435334 1.63950144h1.98647507l-2.44082841-7.14285715h-2.26120033l-2.44082841 7.14285715zm2.41969568-2.96260787h-1.60608622l.16906171-.60402684c.20076078-.70949185.41208791-1.54362416.60228233-2.29146692h.04226543c.21132714.7286673.41208791 1.58197507.62341505 2.29146692z" fill="#fff" fill-rule="nonzero"/></g><g><rect fill="#36435c" height="11.428571" rx="1.428571" width="11.428571"/><path d="m6.33651551 10v-2.76090226h1.64507331v.42406015h1.30412547v-4.69172932h-2.94919878v-1.54285714h-1.31264916v1.54285714h-2.88100921v4.73684211h1.2444596v-.46917294h1.63654961v2.76090226zm1.64507331-4.05112782h-1.64507331v-1.68721804h1.64507331zm-2.95772247 0h-1.63654961v-1.68721804h1.63654961z" fill="#fff" fill-rule="nonzero"/></g></g></svg>

<?xml version="1.0" encoding="UTF-8"?>
<svg width="20px" height="20px" viewBox="0 0 20 20" version="1.1" xmlns="http://www.w3.org/2000/svg" xmlns:xlink="http://www.w3.org/1999/xlink">
    
    <g id="Dashboard" stroke="none" stroke-width="1" fill="none" fill-rule="evenodd">
        <g id="00-Menu-交互备份" transform="translate(-339.000000, -299.000000)">
            <g id="icon_close" transform="translate(339.000000, 299.000000)">
                <rect id="矩形" stroke="#36435C" stroke-width="1.5" x="4.28571429" y="4.28571429" width="11.4285714" height="11.4285714" rx="1.42857143"></rect>
                <g id="编组-22" transform="translate(8.571429, 8.571429)">
                    <path d="M10,0 C10.7889782,1.0345293e-15 11.4285714,0.639593215 11.4285714,1.42857143 L11.4285714,10 C11.4285714,10.7889782 10.7889782,11.4285714 10,11.4285714 L1.42857143,11.4285714 C0.639593215,11.4285714 9.25707495e-16,10.7889782 0,10 L0,4.285 L1.42857143,4.28571429 C3.00652786,4.28571429 4.28571429,3.00652786 4.28571429,1.42857143 L4.285,0 L10,0 Z M2.857,0 L2.85714286,1.42857143 C2.85714286,2.21754964 2.21754964,2.85714286 1.42857143,2.85714286 L0,2.857 L0,1.42857143 C-3.18666569e-16,0.639593215 0.639593215,-7.71116583e-17 1.42857143,0 L2.857,0 Z" id="形状结合" fill="#B6C2CD"></path>
                    <path d="M4.06593407,9.28571429 L4.5202874,7.64621285 L6.84488588,7.64621285 L7.29923922,9.28571429 L9.28571429,9.28571429 L6.84488588,2.14285714 L4.58368555,2.14285714 L2.14285714,9.28571429 L4.06593407,9.28571429 Z M6.48562975,6.32310642 L4.87954353,6.32310642 L5.04860524,5.71907958 C5.24936602,5.00958773 5.46069315,4.17545542 5.65088757,3.42761266 L5.693153,3.42761266 C5.90448014,4.15627996 6.10524091,5.00958773 6.31656805,5.71907958 L6.48562975,6.32310642 Z" id="A" fill="#FFFFFF" fill-rule="nonzero"></path>
                </g>
                <g id="编组-12">
                    <rect id="矩形" fill="#36435C" x="0" y="0" width="11.4285714" height="11.4285714" rx="1.42857143"></rect>
                    <path d="M6.33651551,10 L6.33651551,7.23909774 L7.98158882,7.23909774 L7.98158882,7.66315789 L9.28571429,7.66315789 L9.28571429,2.97142857 L6.33651551,2.97142857 L6.33651551,1.42857143 L5.02386635,1.42857143 L5.02386635,2.97142857 L2.14285714,2.97142857 L2.14285714,7.70827068 L3.38731674,7.70827068 L3.38731674,7.23909774 L5.02386635,7.23909774 L5.02386635,10 L6.33651551,10 Z M7.98158882,5.94887218 L6.33651551,5.94887218 L6.33651551,4.26165414 L7.98158882,4.26165414 L7.98158882,5.94887218 Z M5.02386635,5.94887218 L3.38731674,5.94887218 L3.38731674,4.26165414 L5.02386635,4.26165414 L5.02386635,5.94887218 Z" id="中" fill="#FFFFFF" fill-rule="nonzero"></path>
                </g>
            </g>
        </g>
    </g>
</svg>
